Numix-GalliumOS/64/categories/applications-ide.svg

<?xml version="1.0" encoding="UTF-8" standalone="no"?>
<svg
   xmlns:dc="http://purl.org/dc/elements/1.1/"
   xmlns:cc="http://creativecommons.org/ns#"
   xmlns:rdf="http://www.w3.org/1999/02/22-rdf-syntax-ns#"
   xmlns:svg="http://www.w3.org/2000/svg"
   xmlns="http://www.w3.org/2000/svg"
   xmlns:sodipodi="http://sodipodi.sourceforge.net/DTD/sodipodi-0.dtd"
   xmlns:inkscape="http://www.inkscape.org/namespaces/inkscape"
   width="64"
   height="64"
   viewBox="0 0 64 64"
   id="svg2"
   version="1.1"
   inkscape:version="0.91 r"
   sodipodi:docname="applications-ide.svg">
  <metadata
     id="metadata10">
    <rdf:RDF>
      <cc:Work
         rdf:about="">
        <dc:format>image/svg+xml</dc:format>
        <dc:type
           rdf:resource="http://purl.org/dc/dcmitype/StillImage" />
      </cc:Work>
    </rdf:RDF>
  </metadata>
  <defs
     id="defs8" />
  <sodipodi:namedview
     pagecolor="#ffffff"
     bordercolor="#666666"
     borderopacity="1"
     objecttolerance="10"
     gridtolerance="10"
     guidetolerance="10"
     inkscape:pageopacity="0"
     inkscape:pageshadow="2"
     inkscape:window-width="640"
     inkscape:window-height="480"
     id="namedview6" />
  <path
     style="fill:#cc7d6f"
     d="M 52.519531 6.933594 C 51.765625 7 51.007812 7.375 50.398438 7.96875 L 36.769531 19.816406 C 36.183594 20.382812 35.859375 21.183594 35.859375 21.992188 C 35.859375 22.382812 35.945312 22.734375 36.085938 23.078125 C 36.09375 23.097656 36.082031 23.125 36.085938 23.136719 C 35.578125 24.21875 35.742188 25.722656 35.742188 28.976562 C 35.742188 30.175781 32.625 31.4375 31.847656 31.4375 C 31.808594 31.4375 31.769531 31.4375 31.730469 31.4375 C 29.257812 31.4375 21.21875 31.808594 18.738281 35.222656 C 16.257812 38.632812 6.941406 54.132812 6.941406 56.40625 C 10.65625 56.40625 37.675781 42.902344 39.0625 41.632812 C 40.734375 40.097656 39.914062 37 38.835938 34.933594 C 38.839844 34.929688 38.828125 34.890625 38.835938 34.875 C 38.859375 34.804688 38.875 34.695312 38.777344 34.53125 C 38.195312 33.5625 37.859375 32.578125 37.859375 31.210938 C 37.859375 28.175781 38.175781 26.503906 38.835938 25.546875 C 40.292969 25.792969 42.414062 25.085938 43.359375 24.171875 L 55.324219 12.773438 C 56.542969 11.601562 56.828125 9.832031 55.613281 8.652344 L 54.636719 7.683594 C 54.03125 7.089844 53.269531 6.875 52.519531 6.941406 Z "
     id="path4" />
</svg>

<svg xmlns="http://www.w3.org/2000/svg" viewBox="0 0 64 64">
 <path d="m 52.52 6.934 c -0.754 0.066 -1.512 0.441 -2.121 1.035 l -13.629 11.848 c -0.586 0.566 -0.91 1.367 -0.91 2.176 c 0 0.391 0.086 0.742 0.227 1.086 c 0.008 0.02 -0.004 0.047 0 0.059 c -0.508 1.082 -0.344 2.586 -0.344 5.84 c 0 1.199 -3.117 2.461 -3.895 2.461 c -0.039 0 -0.078 0 -0.117 0 c -2.473 0 -10.512 0.371 -12.992 3.785 c -2.48 3.41 -11.797 18.91 -11.797 21.18 c 3.715 0 30.734 -13.504 32.12 -14.773 c 1.672 -1.535 0.852 -4.633 -0.227 -6.699 c 0.004 -0.004 -0.008 -0.043 0 -0.059 c 0.023 -0.07 0.039 -0.18 -0.059 -0.344 c -0.582 -0.969 -0.918 -1.953 -0.918 -3.32 c 0 -3.035 0.316 -4.707 0.977 -5.664 c 1.457 0.246 3.578 -0.461 4.523 -1.375 l 11.965 -11.398 c 1.219 -1.172 1.504 -2.941 0.289 -4.121 l -0.977 -0.969 c -0.605 -0.594 -1.367 -0.809 -2.117 -0.742 Z" style="fill:#cc7d6f"/>
</svg>
